X: 33
T: Acemkürdî Seyir
C: Erol Bingöl
O: Turkey
F: http://compmusic.upf.edu/node/140
N: acemkurdi--seyir--senginsemai--1--erol_bingol
N: makam= acemkurdi
N: form= seyir
N: usul= senginsemai = 6/4
M: 6/4
L: 1/16
K: C _B   
Q: 1/4=60
%%MIDI tuningsystem comma53
f4 f4 e4 g2f2 f8  | e2f2 g2a2 g2f2 e2d2 c8  | \
w:   |   | 
d4 e4 f4 g4 a4 g2f2  | 
w:   | 
f8 f3e d2e2 f8  | f4 e4 f4 g4 a8  | g4 a2g2 f2e2 d2c2 B8  | \
w:   |   |   | 
A4 B4 B3A G4 A2c2 B2A2  | 
w:   | 
A16 z8  | |


